X: 26926
T: Miss Anderson
R: jig
M: 6/8
K: Dmajor
b|:afd dcd|edB B2c|dAF FEF|ABA A2b|
afd dcd|efg B2d|cde ABc|d3 d2b:|
|:afd dfa|ad'2 d'2b|afd dcd|ce2 efg|
afd dfa|ad'2 d'2b|aba gfe|1 d3 d2b:|2 d3 d2||

